svgs/sharp-light/user-hair-buns.svg

<svg xmlns="http://www.w3.org/2000/svg" viewBox="0 0 448 512"><!--! Font Awesome Pro 6.6.0 by @fontawesome - https://fontawesome.com License - https://fontawesome.com/license (Commercial License) Copyright 2024 Fonticons, Inc. --><path d="M256 128l-6.6 0-4.7-4.7L224 102.6l-20.7 20.7-4.7 4.7-6.6 0-64 0 0 16c0 53 43 96 96 96s96-43 96-96l0-16-64 0zm67.9 96c-23.5 29.3-59.5 48-99.9 48s-76.5-18.7-99.9-48L96 224l-32 0-32 0 0-32 0-96 0-32 32 0 32 0 17.1 0C135.3 25.7 176.6 0 224 0s88.7 25.7 110.9 64L352 64l32 0 32 0 0 32 0 96 0 32-32 0-32 0-28.1 0zM352 144l0 48 32 0 0-96-32 0 0 32 0 16zM314.5 96C301.4 58.7 265.8 32 224 32s-77.4 26.7-90.5 64l51.9 0 27.3-27.3L224 57.4l11.3 11.3L262.6 96l51.9 0zM87.6 336L43.3 480l361.3 0L360.4 336 87.6 336zM384 304l54.2 176 9.8 32-33.5 0-381 0L0 512l9.8-32L64 304l320 0zM96 96L64 96l0 96 32 0 0-48 0-16 0-32z"/></svg>

<svg xmlns="http://www.w3.org/2000/svg" viewBox="0 0 448 512"><!--! Font Awesome Pro 6.4.2 by @fontawesome - https://fontawesome.com License - https://fontawesome.com/license (Commercial License) Copyright 2023 Fonticons, Inc. --><path d="M256 128h-6.6l-4.7-4.7L224 102.6l-20.7 20.7-4.7 4.7H192l-64 0v16c0 53 43 96 96 96s96-43 96-96V128H256zm67.9 96c-23.5 29.3-59.5 48-99.9 48s-76.5-18.7-99.9-48H96 64 32V192 96 64H64 96h17.1C135.3 25.7 176.6 0 224 0s88.7 25.7 110.9 64H352h32 32V96v96 32H384 352 323.9zM352 144v48h32V96H352v32 16zM314.5 96C301.4 58.7 265.8 32 224 32s-77.4 26.7-90.5 64h51.9l27.3-27.3L224 57.4l11.3 11.3L262.6 96h51.9zM87.6 336L43.3 480H404.7L360.4 336H87.6zM384 304l54.2 176 9.8 32H414.5 33.5 0l9.8-32L64 304H384zM96 96H64v96H96V144 128 96z"/></svg>
